icon/facebook.svg

<svg width="24" height="24" viewBox="0 0 24 24" fill="none" xmlns="http://www.w3.org/2000/svg">
<path d="M13.28 8.56995C13.2408 8.10949 13.3456 7.64823 13.58 7.24995C13.6489 7.14436 13.7371 7.05275 13.84 6.97995C14.2716 6.72838 14.7754 6.62973 15.27 6.69995H16V4.19995C15.0142 3.98726 13.9987 3.95003 13 4.08995C12.5892 4.17238 12.1998 4.33829 11.8557 4.57739C11.5117 4.81649 11.2205 5.12368 11 5.47995C10.8456 5.72902 10.7182 5.99385 10.62 6.26995C10.62 6.37995 10.55 6.48994 10.52 6.59994C10.4269 6.99636 10.3832 7.40279 10.39 7.80995C10.39 8.50995 10.39 9.31995 10.39 10.0199V10.0999H8V12.9999H10.36V19.9999H13.28V12.9999H15.5L15.9 10.0799H13.28V8.56995Z" fill="#101010"/>
</svg>

<?xml version="1.0" encoding="utf-8"?>
<!-- Generator: Adobe Illustrator 25.4.1, SVG Export Plug-In . SVG Version: 6.00 Build 0)  -->
<svg version="1.1" id="Layer_1" xmlns="http://www.w3.org/2000/svg" xmlns:xlink="http://www.w3.org/1999/xlink" x="0px" y="0px"
	 viewBox="0 0 24 24" style="enable-background:new 0 0 24 24;" xml:space="preserve">
<style type="text/css">
	.st0{fill:#202020;}
</style>
<path class="st0" d="M13.28,8.57c-0.04-0.46,0.07-0.92,0.3-1.32c0.07-0.11,0.16-0.2,0.26-0.27c0.43-0.25,0.94-0.35,1.43-0.28H16V4.2
	c-0.99-0.21-2-0.25-3-0.11c-0.41,0.08-0.8,0.25-1.14,0.49c-0.34,0.24-0.64,0.55-0.86,0.9c-0.15,0.25-0.28,0.51-0.38,0.79
	c0,0.11-0.07,0.22-0.1,0.33c-0.09,0.4-0.14,0.8-0.13,1.21c0,0.7,0,1.51,0,2.21v0.08H8V13h2.36v7h2.92v-7h2.22l0.4-2.92h-2.62V8.57z"
	/>
</svg>
